libs/shared/images/icons-sharp-light/file-zip.svg

<svg xmlns="http://www.w3.org/2000/svg" viewBox="0 0 512 512"><defs><style>.fa-secondary{opacity:.4}</style></defs><path class="fa-secondary" d="M0 0L224 0l0 160 160 0 0 144-208 0 0 208L0 512 0 0z"/><path class="fa-primary" d="M384 160L224 0l0 160 160 0zM240 352l-16 0 0 32 16 0 41 0-54.9 96.1-2.1 3.7 0 4.2 0 8 0 16 16 0 64 0 16 0 0-32-16 0-41 0 54.9-96.1 2.1-3.7 0-4.2 0-8 0-16-16 0-64 0zm144 16l0-16-32 0 0 16 0 128 0 16 32 0 0-16 0-128zm32-16l0 16 0 80 0 48 0 16 32 0 0-16 0-32 8 0c30.9 0 56-25.1 56-56s-25.1-56-56-56l-24 0-16 0zm32 80l0-48 8 0c13.3 0 24 10.7 24 24s-10.7 24-24 24l-8 0z"/></svg>

<svg xmlns="http://www.w3.org/2000/svg" viewBox="0 0 512 512"><path d="M352 192v96h32V152L232 0H32 0V32 480v32H32 160V480H32V32H192V176v16h16H352zm-5.3-32H224V37.3L346.7 160zM304 352H240 224v32h16 41l-54.9 96.1-2.1 3.7V488v8 16h16 64 16V480H304 263l54.9-96.1 2.1-3.7V376v-8V352H304zm80 16V352H352v16V496v16h32V496 368zm32-16v16 80 48 16h32V496 464h8c30.9 0 56-25.1 56-56s-25.1-56-56-56H432 416zm32 80V384h8c13.3 0 24 10.7 24 24s-10.7 24-24 24h-8z"/></svg>
